T: Thady Casey's Fancy
M: 4/4
L: 1/8
K: Emin
|: zd | BcAF G2GA | B2Ac Beed | BcAF G2ef | gefd Beed |!BcAF G2GA | B2Ac Beed | BcAF G2ef | {a}gefd e2 ::!(ef) | gfga gdBd | gefd Beef | gfga bgaf | gefd Beef |!gfga gdBd | gefd Beef | gfga bgaf | [1 gefd Be :| [2 gefd Bee2 |]
